!! J.F. Bridge, First Species counterpoint example from Bridge's "Counterpoint"
!! Novello & Co. (London) -1878, example 20, pp. 6-7
**kern	**kern
*M2/2	*M2/2
=1	=1
1C	1g
=2	=2
1E-	1c
=3	=3
1D	1d
=4	=4
1C	1e-
=5	=5
1A-	1f
=6	=6
1G	1g
=7	=7
1F	1a-
=8	=8
1E-	1g
=9	=9
1e-	1cc
=10	=10
1d	1b-
=11	=11
1c	1e-
=12	=12
1F	1a-
=13	=13
1A-	1f
=14	=14
1c	1e-
=15	=15
1Bn	1d
=16	=16
1c	1c
==	==
*-	*-
